!!!!SEGMENT: pl-sa--234-a-vi-38--001-003_bach-johann-christian--sinfonia-ex-b-presto.krn
!!!cenid: 17xx:1806
!!!COM: Bach, Johann Christian
!!!COM-rismID: pe2530
!!!CDT: 1735/09/05-1782/01/01
!!!CNT: German
!!!OPR: Sinfonia ex B
!!!OTL: Presto
!!!OMV: 003
!!!PDT:
!!!AGN: Secular
!!!YEC: Copyright 2022 Narodowy Instytut Fryderyka Chopina (https://polishscores.org)
!!!YEM: License CC-BY-4.0 (https://creativecommons.org/licenses/by/4.0)
!!!SMS-siglum: PL-SA
!!!SMS-shelfmark: 234/A VI 38
!!!SMS-shelfwork: 001-003 M
!!!SMS-variant:
!!!SMS-altvar:
!!!NIFC-rismSourceID: 1001035159
!!!NIFC-rismChildID: 1001035159
!!!NIFC-islandoraID: none
!!!URL-pdf-islandora:
!!!URL-scan: https://bc.bdsandomierz.pl/dlibra/publication/1605/edition/1573/content @EN{Scan in the Sandomierz Diocese Digital Library} @PL{Skany w portalu Cyfrowa Biblioteka Diecezjalna w Sandomierzu}
!!!IIIF:
!!!ONB-nifc: UWAGA: części Sinfonii: 1. Allegro, 2. Andante, 3. Presto. Uwaga: partia Basso niekompletna
!!!AIN: 1 cbass 2 cor 1 viola 2 violn
!!!key: B-
**kern	**kern	**dynam	**kern	**dynam	**kern	**dynam	**kern	**kern
*group2	*group2	*	*group2	*	*group2	*	*group1	*group1
*part6	*part5	*	*part4	*	*part3	*	*part2	*part1
*staff6	*staff5	*	*staff4	*	*staff3	*	*staff2	*staff1
*I"Baſso	*I"Alto Viola	*	*I"Violino Secondo	*	*I"Violino 1mo	*	*I"Cornu 2do	*I"Cornu 1mo
*I'[Cb]	*I'[Vla]	*	*I'[Vl 2]	*	*I'[Vl 1]	*	*I'[Cor 2]	*I'[Cor 1]
*Icbass	*Iviola	*	*Ivioln	*	*Ivioln	*	*Icor	*Icor
*ICstr	*ICstr	*	*ICstr	*	*ICstr	*	*ICbras	*ICbras
*clefF4	*clefC3	*	*clefG2	*	*clefG2	*	*clefG2	*clefG2
*	*	*	*	*	*	*	*ITrd4c7	*ITrd4c7
*k[b-e-]	*k[b-e-]	*	*k[b-e-]	*	*k[b-e-]	*	*k[b-e-]	*k[b-e-]
*B-:	*B-:	*	*B-:	*	*B-:	*	*B-:	*B-:
*M3/8	*M3/8	*	*M3/8	*	*M3/8	*	*M3/8	*M3/8
=1	=1	=1	=1	=1	=1	=1	=1	=1
*2\right	*2\right	*	*2\right	*	*2\right	*	*	*
!	!	!	!	!	!	!	!LO:TX:t=P:problem=brak partii głosu	!LO:TX:t=P:problem=brak partii głosu
!LO:TX:t=P:problem=all\right&colon; global	!LO:TX:t=P:problem=all\right&colon; global	!	!LO:TX:t=P:problem=all\right&colon; global	!	!LO:TX:t=P:problem=all\right&colon; global	!	!	!
!LO:TX:a:t=Presto	!LO:TX:a:t=Presto	!	!LO:TX:a:t=Presto	!	!LO:TX:a:t=Presto	!	!	!
4BB-/	4B-/	.	8B-/ 8f/ 8b-/	.	16d/LL	.	4.ryy	4.ryy
.	.	.	.	.	16f/	.	.	.
.	.	.	8r	.	16b-/	.	.	.
.	.	.	.	.	16f/	.	.	.
8r	8r	.	8r	.	16b-/	.	.	.
.	.	.	.	.	16f/JJ	.	.	.
=2	=2	=2	=2	=2	=2	=2	=2	=2
4BB-/	4B-/	.	16d/LL	.	16f/LL	.	4.ryy	4.ryy
.	.	.	16f/	.	16b-/	.	.	.
.	.	.	16b-/	.	16dd/	.	.	.
.	.	.	16f/	.	16b-/	.	.	.
8r	8r	.	16b-/	.	16dd/	.	.	.
.	.	.	16f/JJ	.	16b-/JJ	.	.	.
=3	=3	=3	=3	=3	=3	=3	=3	=3
4BB-/	4B-/	.	16f/LL	.	16b-\LL	.	4.ryy	4.ryy
.	.	.	16b-/	.	16dd\	.	.	.
.	.	.	16dd/	.	16ff\	.	.	.
.	.	.	16b-/	.	16dd\	.	.	.
8r	8r	.	16dd/	.	16ff\	.	.	.
.	.	.	16b-/JJ	.	16dd\JJ	.	.	.
=4	=4	=4	=4	=4	=4	=4	=4	=4
4BB-/	4B-/	.	16b-\LL	.	16dd\LL	.	4.ryy	4.ryy
.	.	.	16dd\	.	16ff\	.	.	.
.	.	.	16ff\	.	16bb-\	.	.	.
.	.	.	16dd\	.	16ff\	.	.	.
8r	8r	.	16ff\	.	16bb-\	.	.	.
.	.	.	16dd\JJ	.	16ff\JJ	.	.	.
=5	=5	=5	=5	=5	=5	=5	=5	=5
8E-\L	8e-\L	.	16gg\LL	.	16gg\LL	.	4.ryy	4.ryy
.	.	.	16b-\	.	16b-\	.	.	.
8G\	8g\	.	16bb-\	.	16bb-\	.	.	.
.	.	.	16b-\	.	16b-\	.	.	.
8E-\J	8e-\J	.	16gg\	.	16gg\	.	.	.
.	.	.	16b-\JJ	.	16b-\JJ	.	.	.
=6	=6	=6	=6	=6	=6	=6	=6	=6
8D/L	8d\L	.	16ff\LL	.	16ff\LL	.	4.ryy	4.ryy
.	.	.	16b-\	.	16b-\	.	.	.
8BB-/	8B-\	.	16bb-\	.	16bb-\	.	.	.
.	.	.	16b-\	.	16b-\	.	.	.
8D/J	8d\J	.	16ff\	.	16ff\	.	.	.
.	.	.	16b-\JJ	.	16b-\JJ	.	.	.
!	!	!	!	!	!LO:LB:g=original	!	!	!
=7	=7	=7	=7	=7	=7	=7	=7	=7
8E-\L	8e-\L	.	16gg\LL	.	16gg\LL	.	4.ryy	4.ryy
.	.	.	16ff\	.	16ff\	.	.	.
8G\	8b-\	.	16ee-\	.	16ee-\	.	.	.
.	.	.	16dd\	.	16dd\	.	.	.
8E-\J	8g\J	.	16cc\	.	16cc\	.	.	.
.	.	.	16b-\JJ	.	16b-\JJ	.	.	.
!	!	!	!LO:LB:g=original	!	!	!	!	!
=8	=8	=8	=8	=8	=8	=8	=8	=8
8F\L	8f\L	.	16a/LL	.	16a/LL	.	4.ryy	4.ryy
.	.	.	16cc/J	.	16cc/J	.	.	.
16F\L	16f\L	.	8ff/J	.	8ff/J	.	.	.
16E-\	16e-\	.	.	.	.	.	.	.
16D\	16d\	.	8r	.	8r	.	.	.
16C\JJ	16c\JJ	.	.	.	.	.	.	.
!LO:LB:g=original	!	!	!	!	!	!	!	!
=9	=9	=9	=9	=9	=9	=9	=9	=9
4BB-/	4B-/	.	8B-/ 8f/ 8b-/	.	16d/LL	.	4.ryy	4.ryy
.	.	.	.	.	16f/	.	.	.
.	.	.	8r	.	16b-/	.	.	.
.	.	.	.	.	16f/	.	.	.
8r	8r	.	8r	.	16b-/	.	.	.
.	.	.	.	.	16f/JJ	.	.	.
!	!LO:LB:g=original	!	!	!	!	!	!	!
=10	=10	=10	=10	=10	=10	=10	=10	=10
4BB-/	4B-/	.	16d/LL	.	16f/LL	.	4.ryy	4.ryy
.	.	.	16f/	.	16b-/	.	.	.
.	.	.	16b-/	.	16dd/	.	.	.
.	.	.	16f/	.	16b-/	.	.	.
8r	8r	.	16b-/	.	16dd/	.	.	.
.	.	.	16f/JJ	.	16b-/JJ	.	.	.
=11	=11	=11	=11	=11	=11	=11	=11	=11
4BB-/	4B-/	.	16f/LL	.	16b-\LL	.	4.ryy	4.ryy
.	.	.	16b-/	.	16dd\	.	.	.
.	.	.	16dd/	.	16ff\	.	.	.
.	.	.	16b-/	.	16dd\	.	.	.
8r	8r	.	16dd/	.	16ff\	.	.	.
.	.	.	16b-/JJ	.	16dd\JJ	.	.	.
=12	=12	=12	=12	=12	=12	=12	=12	=12
4BB-/	4B-/	.	16b-\LL	.	16dd\LL	.	4.ryy	4.ryy
.	.	.	16dd\	.	16ff\	.	.	.
.	.	.	16ff\	.	16bb-\	.	.	.
.	.	.	16dd\	.	16ff\	.	.	.
8r	8r	.	16ff\	.	16bb-\	.	.	.
.	.	.	16dd\JJ	.	16ff\JJ	.	.	.
=13	=13	=13	=13	=13	=13	=13	=13	=13
8E-\L	8e-\L	.	16gg\LL	.	16gg\LL	.	4.ryy	4.ryy
.	.	.	16b-\	.	16b-\	.	.	.
8G\	8g\	.	16bb-\	.	16bb-\	.	.	.
.	.	.	16b-\	.	16b-\	.	.	.
8E-\J	8e-\J	.	16gg\	.	16gg\	.	.	.
.	.	.	16b-\JJ	.	16b-\JJ	.	.	.
=14	=14	=14	=14	=14	=14	=14	=14	=14
!	!	!	!LO:SIC:v:s=16ff	!	!	!	!	!
8D/L	8d\L	.	16gg\LL	.	16ff\LL	.	4.ryy	4.ryy
.	.	.	16b-\	.	16b-\	.	.	.
8BB-/	8B-\	.	16bb-\	.	16bb-\	.	.	.
.	.	.	16b-\	.	16b-\	.	.	.
8D/J	8d\J	.	16gg\	.	16ff\	.	.	.
.	.	.	16b-\JJ	.	16b-\JJ	.	.	.
=15	=15	=15	=15	=15	=15	=15	=15	=15
8E-\L	16e-\LL	.	16gg\LL	.	16gg\LL	.	4.ryy	4.ryy
.	16g\	.	16ee-\	.	16ee-\	.	.	.
8F\	16f\	.	16dd\	.	16dd\	.	.	.
.	16e-\	.	16cc\	.	16cc\	.	.	.
8F\J	16d\	.	16b-\	.	16b-\	.	.	.
.	16c\JJ	.	16a\JJ	.	16a\JJ	.	.	.
!	!	!	!	!	!LO:LB:g=original	!	!	!
=16	=16	=16	=16	=16	=16	=16	=16	=16
8BB-/L	8d\	.	4d/ 4b-/	.	4d/ 4b-/	.	4.ryy	4.ryy
8D/	8r	.	.	.	.	.	.	.
8F/J	8r	.	8r	.	8r	.	.	.
!	!	!	!LO:LB:g=original	!	!	!	!	!
=17	=17	=17	=17	=17	=17	=17	=17	=17
!	!	!	!	!LO:DY:a	!	!	!	!
4B-\	4b-\	.	16dd\LL	p	16dd\LL	.	4.ryy	4.ryy
.	.	.	16een\	.	16een\	.	.	.
.	.	.	16ff\	.	16ff\	.	.	.
.	.	.	16gg\	.	16gg\	.	.	.
8G\	8g\	.	16aa\	.	16aa\	.	.	.
.	.	.	16bb-\JJ	.	16bb-\JJ	.	.	.
=18	=18	=18	=18	=18	=18	=18	=18	=18
4En\	4g\	.	16bb-\LL	.	16bb-\LL	.	4.ryy	4.ryy
.	.	.	16cc\J	.	16cc\J	.	.	.
.	.	.	8cc\J	.	8cc\J	.	.	.
8F\	8f\	.	16gg#X\LL	.	16gg#X\LL	.	.	.
.	.	.	16aa\JJ	.	16aa\JJ	.	.	.
=19	=19	=19	=19	=19	=19	=19	=19	=19
4D\	4g\	.	16aa\LL	.	16aa\LL	.	4.ryy	4.ryy
.	.	.	16b-\J	.	16b-\J	.	.	.
.	.	.	8b-\J	.	8b-\J	.	.	.
8En\	8A/	.	16ff#X\LL	.	16ff#X\LL	.	.	.
.	.	.	16gg\JJ	.	16gg\JJ	.	.	.
=20	=20	=20	=20	=20	=20	=20	=20	=20
4F\	4c/	.	16gg\LL	.	16gg\LL	.	4.ryy	4.ryy
.	.	.	16a\J	.	16a\J	.	.	.
.	.	.	8a\J	.	8a\J	.	.	.
8AA/	8c/	.	16een\LL	.	16een\LL	.	.	.
.	.	.	16ff\JJ	.	16ff\JJ	.	.	.
=21	=21	=21	=21	=21	=21	=21	=21	=21
8BB-/L	8B-/L	.	16dd\LL	.	16dd/LL	.	4.ryy	4.ryy
.	.	.	16cc\	.	16cc/	.	.	.
8BB-/	8d/	.	16b-\	.	16b-/	.	.	.
.	.	.	16a\	.	16a/	.	.	.
8BBn/J	8d/J	.	16g\	.	16g/	.	.	.
.	.	.	16f\JJ	.	16f/JJ	.	.	.
=22	=22	=22	=22	=22	=22	=22	=22	=22
16C\LL	16c\LL	.	8en/ 8a/	.	8en/ 8cc/	.	4.ryy	4.ryy
16D\	16d\	.	.	.	.	.	.	.
!	!LO:SIC:v:s=16en	!	!	!	!	!	!	!
16En\	16e-\	.	8r	.	8r	.	.	.
16F\	16f\	.	.	.	.	.	.	.
!	!LO:SIC:v:s=16en	!	!	!	!	!	!	!
16E\	16e-\	.	8r	.	8r	.	.	.
16D\JJ	16d\JJ	.	.	.	.	.	.	.
=23	=23	=23	=23	=23	=23	=23	=23	=23
8C/	8c/	.	4.r	.	16cc\LL	.	4.ryy	4.ryy
.	.	.	.	.	16dd\	.	.	.
8r	8r	.	.	.	16cc\	.	.	.
.	.	.	.	.	16dd\	.	.	.
8r	8r	.	.	.	16cc\	.	.	.
.	.	.	.	.	16dd\JJ	.	.	.
!LO:LB:g=original	!LO:LB:g=original	!	!	!	!	!	!	!
=24	=24	=24	=24	=24	=24	=24	=24	=24
8C/	16en\LL	.	16g/LL	.	8cc\	.	4.ryy	4.ryy
.	16f\	.	16a/	.	.	.	.	.
8r	16g\	.	16b-/	.	8r	.	.	.
.	16f\	.	16a/	.	.	.	.	.
8r	16g\	.	16b-/	.	8r	.	.	.
.	16e\JJ	.	16g/JJ	.	.	.	.	.
=25	=25	=25	=25	=25	=25	=25	=25	=25
8C/	8f\	.	8a/	.	16cc\LL	.	4.ryy	4.ryy
.	.	.	.	.	16dd\	.	.	.
8r	8r	.	8r	.	16cc\	.	.	.
.	.	.	.	.	16dd\	.	.	.
8r	8r	.	8r	.	16cc\	.	.	.
.	.	.	.	.	16dd\JJ	.	.	.
!	!	!	!	!	!LO:LB:g=original	!	!	!
=26	=26	=26	=26	=26	=26	=26	=26	=26
8C/	16en\LL	.	16g/LL	.	8cc\	.	4.ryy	4.ryy
.	16f\	.	16a/	.	.	.	.	.
8r	16g\	.	16b-/	.	8r	.	.	.
.	16f\	.	16a/	.	.	.	.	.
8r	16g\	.	16b-/	.	8r	.	.	.
.	16e\JJ	.	16g/JJ	.	.	.	.	.
!	!	!	!LO:LB:g=original	!	!	!	!	!
=27	=27	=27	=27	=27	=27	=27	=27	=27
4F\	8f\	.	8a/	.	16ff\LL	.	4.ryy	4.ryy
.	.	.	.	.	16gg\	.	.	.
.	8r	.	8r	.	16ff\	.	.	.
.	.	.	.	.	16een\	.	.	.
8r	8r	.	8r	.	16dd\	.	.	.
.	.	.	.	.	16cc\JJ	.	.	.
=28	=28	=28	=28	=28	=28	=28	=28	=28
!!mixed beam:problem
!	!LO:TX:t=P:problem=mixed beam	!	!	!	!	!	!	!
8B-\L	8b-\L	.	16dd\LL	.	16dd\LL	.	4.ryy	4.ryy
.	.	.	16bb-\	.	16bb-\	.	.	.
8F\	8f\	.	16cc\	.	16cc\	.	.	.
.	.	.	16aa\	.	16aa\	.	.	.
8BB-\J	8B-/J	.	16b-\	.	16b-\	.	.	.
.	.	.	16gg\JJ	.	16gg\JJ	.	.	.
=29	=29	=29	=29	=29	=29	=29	=29	=29
!!mixed beam:problem
!LO:TX:t=P:problem=mixed beam	!	!	!	!	!LO:TX:t=P:problem=mixed beam	!	!	!
8F\L	8f\L	.	16a\LL	.	16a/LL	.	4.ryy	4.ryy
.	.	.	16ff\	.	16ff\	.	.	.
8BB-/	8f\	.	16dd\	.	16dd\	.	.	.
.	.	.	16b-\	.	16b-\	.	.	.
8C/J	8en\J	.	16g\	.	16g\	.	.	.
.	.	.	16en\JJ	.	16en\JJ	.	.	.
=30	=30	=30	=30	=30	=30	=30	=30	=30
!!mixed beam:problem
!	!LO:TX:t=P:problem=mixed beam	!	!	!	!	!	!	!
16F\LL	8f\L	.	8f/	.	8f/	.	4.ryy	4.ryy
16G\	.	.	.	.	.	.	.	.
16F\	8f\	.	8r	.	8r	.	.	.
16E-\	.	.	.	.	.	.	.	.
16D\	8A/J	.	8r	.	8r	.	.	.
16C\JJ	.	.	.	.	.	.	.	.
=31	=31	=31	=31	=31	=31	=31	=31	=31
4BB-/	4B-/	.	8B-/ 8f/ 8b-/	.	16d/LL	.	4.ryy	4.ryy
.	.	.	.	.	16f/	.	.	.
.	.	.	8r	.	16b-/	.	.	.
.	.	.	.	.	16f/	.	.	.
8r	8r	.	8r	.	16b-/	.	.	.
.	.	.	.	.	16f/JJ	.	.	.
=32	=32	=32	=32	=32	=32	=32	=32	=32
4BB-/	4B-/	.	16d/LL	.	16f/LL	.	4.ryy	4.ryy
.	.	.	16f/	.	16b-/	.	.	.
.	.	.	16b-/	.	16dd/	.	.	.
.	.	.	16f/	.	16b-/	.	.	.
8r	8r	.	16b-/	.	16dd/	.	.	.
.	.	.	16f/JJ	.	16b-/JJ	.	.	.
=33	=33	=33	=33	=33	=33	=33	=33	=33
4BB-/	4B-/	.	16f/LL	.	16b-\LL	.	4.ryy	4.ryy
.	.	.	16b-/	.	16dd\	.	.	.
.	.	.	16dd/	.	(>16ff\	.	.	.
.	.	.	16b-/	.	16dd\	.	.	.
8r	8r	.	16dd/	.	16ff\)	.	.	.
.	.	.	16b-/JJ	.	16dd\JJ	.	.	.
=34	=34	=34	=34	=34	=34	=34	=34	=34
4BB-/	4B-/	.	16b-\LL	.	16dd\LL	.	4.ryy	4.ryy
.	.	.	16dd\	.	16ff\	.	.	.
.	.	.	16ff\	.	16bb-\	.	.	.
.	.	.	16dd\	.	16ff\	.	.	.
8r	8r	.	16ff\	.	16bb-\	.	.	.
.	.	.	16dd\JJ	.	16ff\JJ	.	.	.
=35	=35	=35	=35	=35	=35	=35	=35	=35
8E-\L	8e-\L	.	16gg\LL	.	16gg\LL	.	4.ryy	4.ryy
!	!	!	!LO:SIC:v:s=16b-	!	!	!	!	!
.	.	.	16b-\ 16dd\	.	16b-\	.	.	.
8G\	8g\	.	16bb-\	.	16bb-\	.	.	.
.	.	.	16b-\	.	16b-\	.	.	.
8E-\J	8e-\J	.	16gg\	.	16gg\	.	.	.
.	.	.	16b-\JJ	.	16b-\JJ	.	.	.
!	!	!	!LO:LB:g=original	!	!LO:LB:g=original	!	!	!
=36	=36	=36	=36	=36	=36	=36	=36	=36
8D/L	8d\L	.	16ff\LL	.	16ff\LL	.	4.ryy	4.ryy
.	.	.	16b-\	.	16b-\	.	.	.
8BB-/	8B-\	.	16bb-\	.	16bb-\	.	.	.
.	.	.	16b-\	.	16b-\	.	.	.
8D/J	8d\J	.	16ff\	.	16ff\	.	.	.
.	.	.	16b-\JJ	.	16b-\JJ	.	.	.
=37	=37	=37	=37	=37	=37	=37	=37	=37
8E-\L	8e-\L	.	16gg\LL	.	16gg\LL	.	4.ryy	4.ryy
.	.	.	16ee-\	.	16ff\	.	.	.
8G\	8b-\	.	16dd\	.	16ee-\	.	.	.
.	.	.	16cc\	.	16dd\	.	.	.
8E-\J	8g\J	.	16b-\	.	16cc\	.	.	.
.	.	.	16a\JJ	.	16b-\JJ	.	.	.
!LO:LB:g=original	!	!	!	!	!	!	!	!
=38	=38	=38	=38	=38	=38	=38	=38	=38
!	!LO:TX:t=P:problem=fragment nieczytelny	!	!LO:TX:t=P:problem=brak taktu	!	!	!	!	!
8F\L	8ryy	.	4.ryy	.	16a/LL	.	4.ryy	4.ryy
.	.	.	.	.	16cc/J	.	.	.
16F\L	16f\LLyy	.	.	.	8ff/J	.	.	.
16E-\	16e-\	.	.	.	.	.	.	.
16D\	16d\	.	.	.	8r	.	.	.
16C\JJ	16c\JJ	.	.	.	.	.	.	.
=39	=39	=39	=39	=39	=39	=39	=39	=39
4BB-/	4B-/	.	4d/ 4b-/	.	16d/LL	.	4.ryy	4.ryy
.	.	.	.	.	16f/	.	.	.
.	.	.	.	.	16b-/	.	.	.
.	.	.	.	.	16f/	.	.	.
8r	8r	.	8r	.	16b-/	.	.	.
.	.	.	.	.	16f/JJ	.	.	.
=40	=40	=40	=40	=40	=40	=40	=40	=40
!	!	!	!LO:TX:t=P:problem=tt. 40-46 zapisane repetycją	!	!	!	!	!
4BB-/	4B-/	.	16d/LLyy	.	16f/LL	.	4.ryy	4.ryy
.	.	.	16f/yy	.	16b-/	.	.	.
.	.	.	16b-/yy	.	16dd/	.	.	.
.	.	.	16f/yy	.	16b-/	.	.	.
8r	8r	.	16b-/yy	.	16dd/	.	.	.
.	.	.	16f/JJyy	.	16b-/JJ	.	.	.
=41	=41	=41	=41	=41	=41	=41	=41	=41
4BB-/	4B-/	.	16f/LLyy	.	(>16b-\LL	.	4.ryy	4.ryy
.	.	.	16b-/yy	.	16dd\	.	.	.
.	.	.	16dd/yy	.	16ff\	.	.	.
.	.	.	16b-/yy	.	16dd\	.	.	.
8r	8r	.	16dd/yy	.	16ff\)	.	.	.
.	.	.	16b-/JJyy	.	16dd\JJ	.	.	.
=42	=42	=42	=42	=42	=42	=42	=42	=42
4BB-/	4B-/	.	16b-\LLyy	.	16dd\LL	.	4.ryy	4.ryy
.	.	.	16dd\yy	.	16ff\	.	.	.
.	.	.	16ff\yy	.	16bb-\	.	.	.
.	.	.	16dd\yy	.	16ff\	.	.	.
8r	8r	.	16ff\yy	.	16bb-\	.	.	.
.	.	.	16dd\JJyy	.	16ff\JJ	.	.	.
=43	=43	=43	=43	=43	=43	=43	=43	=43
8E-\L	8e-\L	.	16gg\LLyy	.	16gg\LL	.	4.ryy	4.ryy
.	.	.	16dd\yy	.	16b-\	.	.	.
8G\	8g\	.	16bb-\yy	.	16bb-\	.	.	.
.	.	.	16b-\yy	.	16b-\	.	.	.
8E-\J	8e-\J	.	16gg\yy	.	16gg\	.	.	.
.	.	.	16b-\JJyy	.	16b-\JJ	.	.	.
=44	=44	=44	=44	=44	=44	=44	=44	=44
8D/L	8d\L	.	16ff\LLyy	.	16ff\LL	.	4.ryy	4.ryy
.	.	.	16b-\yy	.	16b-\	.	.	.
8BB-/	8B-\	.	16bb-\yy	.	16bb-\	.	.	.
.	.	.	16b-\yy	.	16b-\	.	.	.
8D/J	8d\J	.	16ff\yy	.	16ff\	.	.	.
.	.	.	16b-\JJyy	.	16b-\JJ	.	.	.
=45	=45	=45	=45	=45	=45	=45	=45	=45
8E-\L	16e-\LL	.	16gg\LLyy	.	16gg\LL	.	4.ryy	4.ryy
.	16g\	.	16ee-\yy	.	16ee-\	.	.	.
8F\	16f\	.	16dd\yy	.	16dd\	.	.	.
.	16e-\	.	16cc\yy	.	16cc\	.	.	.
8F\J	16d\	.	16b-\yy	.	16b-\	.	.	.
.	16c\JJ	.	16a\JJyy	.	16a\JJ	.	.	.
!	!	!	!	!	!LO:LB:g=original	!	!	!
=46	=46	=46	=46	=46	=46	=46	=46	=46
16BB-/LL	4d\	.	4d/yy 4b-yy	.	4d/ 4b-/	.	4.ryy	4.ryy
16C/	.	.	.	.	.	.	.	.
16D/	.	.	.	.	.	.	.	.
16C/	.	.	.	.	.	.	.	.
16BB-/	8r	.	8ryy	.	8r	.	.	.
16AA/JJ	.	.	.	.	.	.	.	.
=47	=47	=47	=47	=47	=47	=47	=47	=47
!	!	!	!	!LO:DY:b:rj	!	!LO:DY:a	!	!
4GG/	4G/	.	16b-/LL	p	16dd\LL	p	4.ryy	4.ryy
.	.	.	16g/	.	16b-\	.	.	.
.	.	.	16b-/	.	16dd\	.	.	.
.	.	.	16g/	.	16b-\	.	.	.
8r	8r	.	16b-/	.	16dd\	.	.	.
.	.	.	16g/JJ	.	16b-\JJ	.	.	.
=48	=48	=48	=48	=48	=48	=48	=48	=48
!	!	!	!LO:TX:t=P:problem=zbędne takty 48 - 53	!	!	!	!	!
4.ryy	4.ryy	.	16f/LL	.	4.ryy	.	4.ryy	4.ryy
.	.	.	16b-/	.	.	.	.	.
.	.	.	16dd/	.	.	.	.	.
.	.	.	16b-/	.	.	.	.	.
.	.	.	16dd/	.	.	.	.	.
.	.	.	16b-/JJ	.	.	.	.	.
=49	=49	=49	=49	=49	=49	=49	=49	=49
4.ryy	4.ryy	.	16b-\LL	.	4.ryy	.	4.ryy	4.ryy
.	.	.	16dd\	.	.	.	.	.
.	.	.	16ff\	.	.	.	.	.
.	.	.	16dd\	.	.	.	.	.
.	.	.	16ff\	.	.	.	.	.
.	.	.	16dd\JJ	.	.	.	.	.
=50	=50	=50	=50	=50	=50	=50	=50	=50
4.ryy	4.ryy	.	16gg\LL	.	4.ryy	.	4.ryy	4.ryy
.	.	.	16b-\	.	.	.	.	.
.	.	.	16bb-\	.	.	.	.	.
.	.	.	16b-\	.	.	.	.	.
.	.	.	16gg\	.	.	.	.	.
.	.	.	16b-\JJ	.	.	.	.	.
=51	=51	=51	=51	=51	=51	=51	=51	=51
!	!	!	!LO:TX:t=P:problem=tt. 51-53 zapisane repetycją	!	!	!	!	!
4.ryy	4.ryy	.	16f/LLyy	.	4.ryy	.	4.ryy	4.ryy
.	.	.	16b-/yy	.	.	.	.	.
.	.	.	16dd/yy	.	.	.	.	.
.	.	.	16b-/yy	.	.	.	.	.
.	.	.	16dd/yy	.	.	.	.	.
.	.	.	16b-/JJyy	.	.	.	.	.
=52	=52	=52	=52	=52	=52	=52	=52	=52
4.ryy	4.ryy	.	16b-\LLyy	.	4.ryy	.	4.ryy	4.ryy
.	.	.	16dd\yy	.	.	.	.	.
.	.	.	16ff\yy	.	.	.	.	.
.	.	.	16dd\yy	.	.	.	.	.
.	.	.	16ff\yy	.	.	.	.	.
.	.	.	16dd\JJyyy	.	.	.	.	.
=53	=53	=53	=53	=53	=53	=53	=53	=53
4.ryy	4.ryy	.	16gg\LLyy	.	4.ryy	.	4.ryy	4.ryy
.	.	.	16b-\yy	.	.	.	.	.
.	.	.	16bb-\yy	.	.	.	.	.
.	.	.	16b-\yy	.	.	.	.	.
.	.	.	16gg\yy	.	.	.	.	.
.	.	.	16b-\JJyy	.	.	.	.	.
=54	=54	=54	=54	=54	=54	=54	=54	=54
4GG/	4G/	.	16cc\LL	.	16ee-\LL	.	4.ryy	4.ryy
.	.	.	16g\	.	16cc\	.	.	.
.	.	.	16cc\	.	16ee-\	.	.	.
.	.	.	16g\	.	16cc\	.	.	.
8r	8r	.	16cc\	.	16ee-\	.	.	.
.	.	.	16g\JJ	.	16cc\JJ	.	.	.
=55	=55	=55	=55	=55	=55	=55	=55	=55
4G\	4g\	.	16cc\LL	.	16ff#X\LL	.	4.ryy	4.ryy
.	.	.	16a\	.	16cc\	.	.	.
.	.	.	16cc\	.	16ff#\	.	.	.
.	.	.	16a\	.	16cc\	.	.	.
8r	8r	.	16cc\	.	16ff#\	.	.	.
.	.	.	16a\JJ	.	16cc\JJ	.	.	.
!	!	!	!LO:LB:g=original	!	!	!	!	!
=56	=56	=56	=56	=56	=56	=56	=56	=56
4G\	4g\	.	16dd\LL	.	16gg\LL	.	4.ryy	4.ryy
.	.	.	16b-\	.	16dd\	.	.	.
.	.	.	16dd\	.	16gg\	.	.	.
.	.	.	16b-\	.	16dd\	.	.	.
8r	8r	.	16dd\	.	16gg\	.	.	.
.	.	.	16b-\JJ	.	16dd\JJ	.	.	.
=57	=57	=57	=57	=57	=57	=57	=57	=57
!	!	!	!	!	!	!LO:DY:a:rj	!	!
4D/	16B-\LL	.	8dd\L	.	8bb-\L	f	4.ryy	4.ryy
.	16en\	.	.	.	.	.	.	.
.	16f#X\	.	8cc\	.	8aa\	.	.	.
.	16e\	.	.	.	.	.	.	.
8r	16f#\	.	8a\J	.	8cc\J	.	.	.
.	16d\JJ	.	.	.	.	.	.	.
=58	=58	=58	=58	=58	=58	=58	=58	=58
4G\	16G/LL	.	8cc\L	.	8aa\L	.	4.ryy	4.ryy
.	16A/	.	.	.	.	.	.	.
.	16B-/	.	8b-\	.	8gg\	.	.	.
.	16A/	.	.	.	.	.	.	.
8r	16B-/	.	8g\J	.	8b-\J	.	.	.
.	16G/JJ	.	.	.	.	.	.	.
!	!LO:LB:g=original	!	!	!	!	!	!	!
=59	=59	=59	=59	=59	=59	=59	=59	=59
4D/	4c/	.	16a/LL	.	16cc\LL	.	4.ryy	4.ryy
.	.	.	16b-/	.	16dd\	.	.	.
.	.	.	16a/	.	16cc\	.	.	.
.	.	.	16f#X/	.	16a\	.	.	.
8C#X/	8c#X/	.	16g/	.	16b-\	.	.	.
.	.	.	16en/JJ	.	16g\JJ	.	.	.
!LO:LB:g=original	!	!	!	!	!	!	!	!
=60	=60	=60	=60	=60	=60	=60	=60	=60
4D/	16d\LL	.	8d/	.	8f#X/	.	4.ryy	4.ryy
.	16e-\	.	.	.	.	.	.	.
.	16d\	.	8r	.	8r	.	.	.
.	16c\	.	.	.	.	.	.	.
8r	16B-\	.	8r	.	8r	.	.	.
.	16A\JJ	.	.	.	.	.	.	.
=61	=61	=61	=61	=61	=61	=61	=61	=61
*	*	*	*Xtuplet	*	*	*	*	*
!	!	!LO:DY:a:t=p.	!	!	!LO:TUP:a:problem=klamra łukowa	!	!	!
4G\	4G/	p	24dd\LL	.	24ff\LL	p	4.ryy	4.ryy
.	.	.	24ee-\	.	24gg\	.	.	.
.	.	.	24ff\JJ	.	24aa-X\JJ	.	.	.
.	.	.	8ee-\L	.	8gg\L	.	.	.
8r	8r	.	8dd\J	.	8ffT>\J	.	.	.
=62	=62	=62	=62	=62	=62	=62	=62	=62
!	!	!	!LO:N:vis=4	!	!	!	!	!
4C/	4c/	.	8cc\	.	8ee-\L	.	4.ryy	4.ryy
.	.	.	(>16cc\LL	.	16ee-\L	.	.	.
.	.	.	16bn\)	.	16dd\	.	.	.
8r	8r	.	(>16dd\	.	16ff\	.	.	.
.	.	.	16cc\JJ)	.	16ee-\JJ	.	.	.
=63	=63	=63	=63	=63	=63	=63	=63	=63
*	*	*	*	*	*Xtuplet	*	*	*
4F\	4f\	.	24cc\LL	.	24ee-\LL	.	4.ryy	4.ryy
.	.	.	24dd\	.	24ff\	.	.	.
.	.	.	24ee-\JJ	.	24gg\JJ	.	.	.
.	.	.	8dd\L	.	8ff\L	.	.	.
8r	8r	.	8cc\J	.	8ee-\J	.	.	.
!	!	!	!	!	!LO:LB:g=original	!	!	!
=64	=64	=64	=64	=64	=64	=64	=64	=64
4BB-/	4B-/	.	8b-/L	.	8dd\L	.	4.ryy	4.ryy
.	.	.	16b-/L	.	(>16dd\L	.	.	.
.	.	.	16a/	.	16cc\	.	.	.
8r	8r	.	16cc/	.	16ee-\)	.	.	.
.	.	.	16b-/JJ	.	16dd\JJ	.	.	.
!	!	!	!LO:LB:g=original	!	!	!	!	!
=65	=65	=65	=65	=65	=65	=65	=65	=65
4G\	4G/	.	16g/LL	.	8b-\L	.	4.ryy	4.ryy
.	.	.	16b-/	.	.	.	.	.
.	.	.	16g/	.	(>16b-\L	.	.	.
.	.	.	16b-/	.	16dd\	.	.	.
8r	8r	.	16g/	.	16b-\	.	.	.
.	.	.	16b-/JJ	.	16dd\JJ)	.	.	.
=66	=66	=66	=66	=66	=66	=66	=66	=66
4G\	4g\	.	16cc/LL	.	16ee-\LL	.	4.ryy	4.ryy
.	.	.	16g/	.	16cc\	.	.	.
.	.	.	16cc/	.	16ee-\	.	.	.
.	.	.	16g/	.	16cc\	.	.	.
8r	8r	.	16cc/	.	16ee-\	.	.	.
.	.	.	16g/JJ	.	16cc\JJ	.	.	.
=67	=67	=67	=67	=67	=67	=67	=67	=67
4G\	4g\	.	16cc\LL	.	16ff#X\LL	.	4.ryy	4.ryy
.	.	.	16a\	.	16cc\	.	.	.
.	.	.	16cc\	.	16ff#\	.	.	.
.	.	.	16a\	.	16cc\	.	.	.
8r	8r	.	16cc\	.	16ff#\	.	.	.
.	.	.	16a\JJ	.	16cc\JJ	.	.	.
=68	=68	=68	=68	=68	=68	=68	=68	=68
4G\	4g\	.	16dd\LL	.	(>16gg\LL	.	4.ryy	4.ryy
.	.	.	16b-\	.	16dd\	.	.	.
.	.	.	16dd\	.	16gg\	.	.	.
.	.	.	16b-\	.	16dd\	.	.	.
8r	8r	.	16dd\	.	16gg\)	.	.	.
.	.	.	16b-\JJ	.	16dd\JJ	.	.	.
=69	=69	=69	=69	=69	=69	=69	=69	=69
4D/	16d\LL	.	8dd\L	.	8bb-\L	.	4.ryy	4.ryy
.	16en\	.	.	.	.	.	.	.
.	16f#X\	.	8cc\	.	8aa\	.	.	.
.	16e\	.	.	.	.	.	.	.
8r	16f#\	.	8a\J	.	8cc\J	.	.	.
.	16d\JJ	.	.	.	.	.	.	.
=70	=70	=70	=70	=70	=70	=70	=70	=70
8G\	16G/LL	.	8cc/L	.	8aa\L	.	4.ryy	4.ryy
.	16A/	.	.	.	.	.	.	.
8r	16B-/	.	8b-\	.	8gg\	.	.	.
.	16A/	.	.	.	.	.	.	.
8r	16B-/	.	8g\J	.	8b-\J	.	.	.
.	16G/JJ	.	.	.	.	.	.	.
=71	=71	=71	=71	=71	=71	=71	=71	=71
8BB-/L	8c\L	.	16cc/LL	.	16ee-\LL	.	4.ryy	4.ryy
.	.	.	16a/	.	16cc\	.	.	.
8C/	8d\	.	16g/	.	16b-\	.	.	.
.	.	.	16b-/	.	16dd\	.	.	.
8D/J	8d\J	.	16a/	.	16cc\	.	.	.
.	.	.	16f#X/JJ	.	16a\JJ	.	.	.
=72	=72	=72	=72	=72	=72	=72	=72	=72
!LO:N:vis=16	!	!	!	!	!	!	!	!
16G\LL	8g\L	.	4g/	.	8g/	.	4.ryy	4.ryy
16G\	.	.	.	.	.	.	.	.
16F\	16f\L	.	.	.	8r	.	.	.
16E-\	16e-\	.	.	.	.	.	.	.
16D\	16d\	.	8r	.	8r	.	.	.
16C\JJ	16c\JJ	.	.	.	.	.	.	.
!	!LO:LB:g=original	!	!	!	!	!	!	!
=73	=73	=73	=73	=73	=73	=73	=73	=73
!	!LO:TX:t=P:problem=fragment nieczytelny	!	!	!	!	!	!	!
4BB-/	4ryy	.	8B-/ 8f/ 8b-/	.	16d/LL	.	4.ryy	4.ryy
.	.	.	.	.	16f/	.	.	.
.	.	.	8r	.	16b-/	.	.	.
.	.	.	.	.	16f/	.	.	.
8r	8r	.	8r	.	16b-/	.	.	.
.	.	.	.	.	16f/JJ	.	.	.
!	!	!	!LO:LB:g=original	!	!LO:LB:g=original	!	!	!
=74	=74	=74	=74	=74	=74	=74	=74	=74
!	!	!	!LO:TX:t=P:problem=brak tt. 74-80	!	!	!	!	!
4BB-/	4B-/	.	4.ryy	.	16f/LL	.	4.ryy	4.ryy
.	.	.	.	.	16b-/	.	.	.
.	.	.	.	.	16dd/	.	.	.
.	.	.	.	.	16b-/	.	.	.
8r	8r	.	.	.	16dd/	.	.	.
.	.	.	.	.	16b-/JJ	.	.	.
=75	=75	=75	=75	=75	=75	=75	=75	=75
4BB-/	4B-/	.	4.ryy	.	16b-\LL	.	4.ryy	4.ryy
.	.	.	.	.	16dd\	.	.	.
.	.	.	.	.	16ff\	.	.	.
.	.	.	.	.	16dd\	.	.	.
8r	8r	.	.	.	16ff\	.	.	.
.	.	.	.	.	16dd\JJ	.	.	.
!LO:LB:g=original	!	!	!	!	!	!	!	!
=76	=76	=76	=76	=76	=76	=76	=76	=76
4BB-/	4B-/	.	4.ryy	.	16dd\LL	.	4.ryy	4.ryy
.	.	.	.	.	16ff\	.	.	.
.	.	.	.	.	16bb-\	.	.	.
.	.	.	.	.	16ff\	.	.	.
8r	8r	.	.	.	16bb-\	.	.	.
.	.	.	.	.	16ff\JJ	.	.	.
=77	=77	=77	=77	=77	=77	=77	=77	=77
8E-\L	8e-\L	.	4.ryy	.	16gg\LL	.	4.ryy	4.ryy
.	.	.	.	.	16b-\	.	.	.
8G\	8g\	.	.	.	16bb-\	.	.	.
.	.	.	.	.	16b-\	.	.	.
8E-\J	8e-\J	.	.	.	16gg\	.	.	.
.	.	.	.	.	16b-\JJ	.	.	.
=78	=78	=78	=78	=78	=78	=78	=78	=78
8D/L	8d/L	.	4.ryy	.	16ff\LL	.	4.ryy	4.ryy
.	.	.	.	.	16b-\	.	.	.
8BB-/	8B-/	.	.	.	16bb-\	.	.	.
.	.	.	.	.	16b-\	.	.	.
8D/J	8d/J	.	.	.	16ff\	.	.	.
.	.	.	.	.	16b-\JJ	.	.	.
=79	=79	=79	=79	=79	=79	=79	=79	=79
8E-\L	8e-\L	.	4.ryy	.	16gg\LL	.	4.ryy	4.ryy
.	.	.	.	.	16ff\	.	.	.
8G\	8b-\	.	.	.	16ee-\	.	.	.
.	.	.	.	.	16dd\	.	.	.
8E-\J	8g\J	.	.	.	16cc\	.	.	.
.	.	.	.	.	16b-\JJ	.	.	.
=80	=80	=80	=80	=80	=80	=80	=80	=80
8F\L	8f\L	.	4.ryy	.	16a/LL	.	4.ryy	4.ryy
.	.	.	.	.	16cc/J	.	.	.
16F\L	16f\L	.	.	.	8ff/J	.	.	.
16E-\	16e-\	.	.	.	.	.	.	.
16D\	16d\	.	.	.	8r	.	.	.
16C\JJ	16c\JJ	.	.	.	.	.	.	.
=81	=81	=81	=81	=81	=81	=81	=81	=81
!	!	!	!	!	!LO:TX:t=P:problem=zbędne takty 81- 88	!	!	!
!LO:TX:t=P:problem=zbędne takty 81-88 vl 1	!LO:TX:t=P:problem=zbędne takty 81-88 vl 1	!	!LO:TX:t=P:problem=zbędne takty 81-88 vl 1	!	!LO:TX:a:t=vi:color=gray	!	!	!
4.ryy	4.ryy	.	4.ryy	.	16d/LL	.	4.ryy	4.ryy
.	.	.	.	.	16f/	.	.	.
.	.	.	.	.	16b-/	.	.	.
.	.	.	.	.	16f/	.	.	.
.	.	.	.	.	16b-/	.	.	.
.	.	.	.	.	16f/JJ	.	.	.
=82	=82	=82	=82	=82	=82	=82	=82	=82
4.ryy	4.ryy	.	4.ryy	.	16f/LL	.	4.ryy	4.ryy
.	.	.	.	.	16b-/	.	.	.
.	.	.	.	.	16dd/	.	.	.
.	.	.	.	.	16b-/	.	.	.
.	.	.	.	.	16dd/	.	.	.
.	.	.	.	.	16b-/JJ	.	.	.
!	!	!	!	!	!LO:LB:g=original	!	!	!
=83	=83	=83	=83	=83	=83	=83	=83	=83
4.ryy	4.ryy	.	4.ryy	.	16b-\LL	.	4.ryy	4.ryy
.	.	.	.	.	16dd\	.	.	.
.	.	.	.	.	16ff\	.	.	.
.	.	.	.	.	16dd\	.	.	.
.	.	.	.	.	16ff\	.	.	.
.	.	.	.	.	16dd\JJ	.	.	.
=84	=84	=84	=84	=84	=84	=84	=84	=84
4.ryy	4.ryy	.	4.ryy	.	16dd\LL	.	4.ryy	4.ryy
.	.	.	.	.	16ff\	.	.	.
.	.	.	.	.	16bb-\	.	.	.
.	.	.	.	.	16ff\	.	.	.
.	.	.	.	.	16bb-\	.	.	.
.	.	.	.	.	16ff\JJ	.	.	.
=85	=85	=85	=85	=85	=85	=85	=85	=85
4.ryy	4.ryy	.	4.ryy	.	16gg\LL	.	4.ryy	4.ryy
.	.	.	.	.	16b-\	.	.	.
.	.	.	.	.	16bb-\	.	.	.
.	.	.	.	.	16b-\	.	.	.
.	.	.	.	.	16gg\	.	.	.
.	.	.	.	.	16b-\JJ	.	.	.
=86	=86	=86	=86	=86	=86	=86	=86	=86
4.ryy	4.ryy	.	4.ryy	.	16ff\LL	.	4.ryy	4.ryy
.	.	.	.	.	16b-\	.	.	.
.	.	.	.	.	16bb-\	.	.	.
.	.	.	.	.	16b-\	.	.	.
.	.	.	.	.	16ff\	.	.	.
.	.	.	.	.	16b-\JJ	.	.	.
=87	=87	=87	=87	=87	=87	=87	=87	=87
4.ryy	4.ryy	.	4.ryy	.	16gg\LL	.	4.ryy	4.ryy
.	.	.	.	.	16ff\	.	.	.
.	.	.	.	.	16ee-\	.	.	.
.	.	.	.	.	16dd\	.	.	.
.	.	.	.	.	16cc\	.	.	.
.	.	.	.	.	16b-\JJ	.	.	.
=88	=88	=88	=88	=88	=88	=88	=88	=88
4.ryy	4.ryy	.	4.ryy	.	16a/LL	.	4.ryy	4.ryy
.	.	.	.	.	16cc/J	.	.	.
.	.	.	.	.	8ff/J	.	.	.
.	.	.	.	.	8r	.	.	.
=89	=89	=89	=89	=89	=89	=89	=89	=89
!	!	!	!LO:TX:t=P:problem=brak taktu	!	!LO:TX:a:t=de:color=gray	!	!	!
4BB-/	4B-/	.	4.ryy	.	16d/LL	.	4.ryy	4.ryy
.	.	.	.	.	16f/	.	.	.
.	.	.	.	.	16b-/	.	.	.
.	.	.	.	.	16f/	.	.	.
8r	8r	.	.	.	16b-/	.	.	.
.	.	.	.	.	16f/JJ	.	.	.
=90	=90	=90	=90	=90	=90	=90	=90	=90
4BB-/	4B-/	.	16d/LL	.	16f/LL	.	4.ryy	4.ryy
.	.	.	16f/	.	16b-/	.	.	.
.	.	.	16b-/	.	16dd/	.	.	.
.	.	.	16f/	.	16b-/	.	.	.
8r	8r	.	16b-/	.	16dd/	.	.	.
.	.	.	16f/JJ	.	16b-/JJ	.	.	.
!	!	!	!	!	!LO:LB:g=original	!	!	!
=91	=91	=91	=91	=91	=91	=91	=91	=91
4BB-/	4B-/	.	16f/LL	.	(>16b-\LL	.	4.ryy	4.ryy
.	.	.	16b-/	.	16dd\	.	.	.
.	.	.	16dd/	.	16ff\	.	.	.
.	.	.	16b-/	.	16dd\	.	.	.
8r	8r	.	16dd/	.	16ff\)	.	.	.
.	.	.	16b-/JJ	.	16dd\JJ	.	.	.
=92	=92	=92	=92	=92	=92	=92	=92	=92
4BB-/	4B-/	.	16b-\LL	.	(>16dd\LL	.	4.ryy	4.ryy
.	.	.	16dd\	.	16ff\	.	.	.
.	.	.	16ff\	.	16bb-\	.	.	.
.	.	.	16dd\	.	16ff\	.	.	.
8r	8r	.	16ff\	.	16bb-\)	.	.	.
.	.	.	16dd\JJ	.	16ff\JJ	.	.	.
=93	=93	=93	=93	=93	=93	=93	=93	=93
8E-\L	8e-\L	.	16gg\LL	.	(>16gg\LL	.	4.ryy	4.ryy
.	.	.	16b-\	.	16b-\	.	.	.
8G\	8g\	.	16bb-\	.	16bb-\	.	.	.
.	.	.	16b-\	.	16b-\	.	.	.
8E-\J	8e-\J	.	16gg\	.	16gg\	.	.	.
.	.	.	16b-\JJ	.	16b-\JJ)	.	.	.
=94	=94	=94	=94	=94	=94	=94	=94	=94
8D/L	8d/L	.	16ff\LL	.	(>16ff\LL	.	4.ryy	4.ryy
.	.	.	16b-\	.	16b-\	.	.	.
8BB-/	8B-/	.	16bb-\	.	16bb-\	.	.	.
.	.	.	16b-\	.	16b-\	.	.	.
8D/J	8d/J	.	(>16ff\	.	16ff\	.	.	.
.	.	.	16b-\JJ)	.	16b-\JJ)	.	.	.
=95	=95	=95	=95	=95	=95	=95	=95	=95
!!mixed beam:problem
!LO:TX:t=P:problem=mixed beam	!	!	!	!	!	!	!	!
8E-\L	16e-\LL	.	16gg\LL	.	16gg\LL	.	4.ryy	4.ryy
.	16g\	.	16ee-\	.	16ee-\	.	.	.
8F\	16f\	.	16dd\	.	16dd\	.	.	.
.	16e-\	.	16cc\	.	16cc\	.	.	.
8FF/J	16d\	.	16b-\	.	16b-\	.	.	.
.	16c\JJ	.	16a\JJ	.	16a\JJ	.	.	.
!	!LO:LB:g=original	!	!	!	!	!	!	!
=96	=96	=96	=96	=96	=96	=96	=96	=96
4BB-/	4B-/	.	8b-\L	.	8b-\L	.	4.ryy	4.ryy
.	.	.	16b-\L	.	16dd\L	.	.	.
.	.	.	16cc\	.	16ee-\	.	.	.
8r	8r	.	(>16dd\	.	16ff\	.	.	.
.	.	.	16ee-\JJ)	.	16gg\JJ	.	.	.
=97	=97	=97	=97	=97	=97	=97	=97	=97
8r	8r	.	8dd\L	.	8ff\L	.	4.ryy	4.ryy
8D\L	8d\L	.	8dd\	.	8ff\	.	.	.
8F\J	8f\J	.	8cc\J	.	8aa\J	.	.	.
!LO:LB:g=original	!	!	!LO:LB:g=original	!	!	!	!	!
=98	=98	=98	=98	=98	=98	=98	=98	=98
4BB-/	4B-/	.	8dd\L	.	8bb-\L	.	4.ryy	4.ryy
.	.	.	16b-\L	.	16dd\L	.	.	.
.	.	.	16cc\	.	16ee-\	.	.	.
8r	8r	.	16dd\	.	16ff\	.	.	.
.	.	.	16ee-\JJ	.	16gg\JJ	.	.	.
=99	=99	=99	=99	=99	=99	=99	=99	=99
8r	8r	.	8dd\L	.	8ff\L	.	4.ryy	4.ryy
8D\L	8d\L	.	8dd\	.	8ff\	.	.	.
8F\J	8f\J	.	8cc\J	.	8aa\J	.	.	.
!	!	!	!	!	!LO:LB:g=original	!	!	!
=100	=100	=100	=100	=100	=100	=100	=100	=100
8BB-/L	8B-\L	.	4B-/ 4f/ 4dd/ 4bb-/	.	4B-/ 4f/ 4dd/ 4bb-/	.	4.ryy	4.ryy
8D/	8d\	.	.	.	.	.	.	.
8F/J	8f\J	.	8r	.	8r	.	.	.
=101	=101	=101	=101	=101	=101	=101	=101	=101
8BB-/L	8B-\L	.	4B-/ 4f/ 4dd/ 4bb-/	.	4B-/ 4f/ 4dd/ 4bb-/	.	4.ryy	4.ryy
8D/	8d\	.	.	.	.	.	.	.
8F/J	8f\J	.	8r	.	8r	.	.	.
=102	=102	=102	=102	=102	=102	=102	=102	=102
4BB-/	4B-/	.	4B-/ 4f/ 4dd/ 4bb-/	.	4B-/ 4f/ 4dd/ 4bb-/	.	4.ryy	4.ryy
!LO:TX:b:t=Finis	!	!	!	!	!	!	!	!
8r	8r	.	8r	.	8r	.	.	.
==	==	==	==	==	==	==	==	==
*-	*-	*-	*-	*-	*-	*-	*-	*-
!!!system-decoration: [(g1)][(g2)]
!!!RDF**kern: > = above
!!!RDF**kern: < = below
!!!ENC: Krzysztof Stępień
!!!END: 2021-02-08
!!!EED: Jędrzej Mróz
!!!EEV: 2022-01-10
